images/cloud.svg

<svg width="167" height="144" viewBox="0 0 167 144" fill="none" xmlns="http://www.w3.org/2000/svg">
<path d="M131.12 128.889C131.12 135.134 129.024 139.57 125.604 141.742L125.555 141.774L125.015 142.104C121.433 144.011 116.571 143.622 111.206 140.483L110.974 140.348L110.741 140.208L64.2627 112.633L25.2614 89.4016L25.0291 89.2613L24.7968 89.1207C11.6955 81.1842 1.11719 62.4858 1.11719 47.2127C1.11719 39.206 4.02378 33.7062 8.68082 31.4101C12.9543 29.2922 18.6972 29.865 25.0183 33.6198C26.2555 34.3591 27.448 35.1709 28.5894 36.0509C30.0427 31.113 32.5117 27.2825 35.764 24.7055C36.3271 24.264 36.9172 23.8581 37.5307 23.4899L38.071 23.1819C44.7864 19.4001 54.0627 20.0754 64.3006 26.1642C79.5413 35.2351 92.6426 53.7175 98.337 72.405C100.504 72.5213 102.604 73.199 104.431 74.3715C111.995 78.8719 118.132 89.6554 118.132 98.4562C118.132 98.6975 118.132 98.9354 118.132 99.1695C120.608 101.773 122.783 104.647 124.615 107.738C128.618 114.416 131.12 122.055 131.12 128.889Z" fill="#F7F6FF" stroke="black" stroke-width="0.712183" stroke-miterlimit="10"/>
<path d="M165.694 108.686C165.694 115.044 163.533 119.523 159.989 121.652L159.918 121.695L159.654 121.846L125.617 141.739C129.037 139.578 131.133 135.131 131.133 128.886L145.78 120.323L165.694 108.686Z" fill="black" stroke="black" stroke-width="0.712183" stroke-miterlimit="10"/>
<path d="M98.8374 5.96629L64.2608 26.1719C53.9959 20.0832 44.7467 19.3917 38.0312 23.1897L57.0592 12.0658L72.1216 3.25958L72.1973 3.21632C78.9505 -0.819421 88.3942 -0.246698 98.8374 5.96629Z" fill="#BFFFE4" stroke="black" stroke-width="0.712183" stroke-miterlimit="10"/>
<path d="M57.0575 12.0662L38.0296 23.19C37.8513 23.2873 37.6784 23.39 37.4893 23.498C36.8869 23.8673 36.3077 24.2733 35.7551 24.7136C32.5135 27.2906 30.0337 31.1211 28.5804 36.0591C27.439 35.179 26.2465 34.3672 25.0093 33.6279C18.6883 29.8461 12.9453 29.3058 8.67188 31.4182L41.9735 11.9688L43.0972 11.3151C46.8466 9.381 51.6874 9.53235 57.0575 12.0662Z" fill="#BFFFE4" stroke="black" stroke-width="0.712183" stroke-miterlimit="10"/>
<path d="M165.689 108.686L145.764 120.329L131.118 128.892C131.118 122.058 128.617 114.419 124.635 107.746C122.802 104.656 120.628 101.781 118.152 99.1777C118.152 98.9436 118.152 98.706 118.152 98.4646C118.152 89.6638 112.02 78.8802 104.451 74.3798C102.624 73.2073 100.524 72.5296 98.3567 72.4133C92.6353 53.7203 79.534 35.2434 64.3203 26.1725L98.8969 5.9668C114.138 15.0378 127.239 33.52 132.933 52.2075C135.101 52.3238 137.201 53.0016 139.027 54.1742C146.591 58.6745 152.728 69.4581 152.728 78.259C152.728 78.5039 152.728 78.7415 152.728 78.972C160.287 86.8652 165.689 98.6483 165.689 108.686Z" fill="#79EFBD" stroke="black" stroke-width="0.712183" stroke-miterlimit="10"/>
<path d="M98.3594 72.2168L132.666 51.957" stroke="black" stroke-width="0.712183"/>
<path d="M118.344 99.5019L152.65 79.2422" stroke="black" stroke-width="0.712183"/>
<path d="M130.508 122.732L164.814 102.473" stroke="black" stroke-width="1.06827"/>
</svg>

<svg xmlns="http://www.w3.org/2000/svg" width="167" height="144" fill="none"><path fill="#F7F6FF" stroke="#000" stroke-miterlimit="10" stroke-width=".712" d="M131.12 128.889c0 6.245-2.096 10.681-5.516 12.853l-.049.032-.54.33c-3.582 1.907-8.444 1.518-13.809-1.621l-.232-.135-.233-.14-46.478-27.575L25.26 89.402l-.232-.14-.232-.141c-13.102-7.937-23.68-26.635-23.68-41.908 0-8.007 2.907-13.507 7.564-15.803 4.273-2.118 10.016-1.545 16.337 2.21a36.58 36.58 0 0 1 3.571 2.43c1.454-4.937 3.923-8.767 7.175-11.344a17.25 17.25 0 0 1 1.767-1.216l.54-.308c6.715-3.782 15.992-3.107 26.23 2.982 15.24 9.071 28.342 27.553 34.036 46.241 2.167.116 4.267.794 6.094 1.966 7.564 4.5 13.701 15.284 13.701 24.085v.713a47.796 47.796 0 0 1 6.483 8.569c4.003 6.678 6.505 14.317 6.505 21.151Z"/><path fill="#000" stroke="#000" stroke-miterlimit="10" stroke-width=".712" d="M165.694 108.686c0 6.358-2.161 10.837-5.705 12.966l-.071.043-.264.151-34.037 19.893c3.42-2.161 5.516-6.608 5.516-12.853l14.647-8.563 19.914-11.637Z"/><path fill="#BFFFE4" stroke="#000" stroke-miterlimit="10" stroke-width=".712" d="M98.837 5.966 64.261 26.172c-10.265-6.089-19.514-6.78-26.23-2.982L57.06 12.066 72.122 3.26l.075-.044c6.754-4.035 16.197-3.463 26.64 2.75Z"/><path fill="#BFFFE4" stroke="#000" stroke-miterlimit="10" stroke-width=".712" d="M57.057 12.066 38.03 23.19c-.179.097-.352.2-.54.308-.603.37-1.182.775-1.735 1.216-3.242 2.577-5.721 6.407-7.175 11.345a36.562 36.562 0 0 0-3.57-2.431c-6.322-3.782-12.065-4.322-16.338-2.21l33.301-19.45 1.124-.653c3.75-1.934 8.59-1.783 13.96.751Z"/><path fill="#79EFBD" stroke="#000" stroke-miterlimit="10" stroke-width=".712" d="m165.689 108.686-19.925 11.643-14.646 8.563c0-6.834-2.501-14.473-6.483-21.146a47.87 47.87 0 0 0-6.483-8.568v-.713c0-8.801-6.132-19.585-13.701-24.085a12.526 12.526 0 0 0-6.094-1.967c-5.722-18.693-18.823-37.17-34.037-46.24L98.897 5.966c15.241 9.07 28.342 27.553 34.036 46.24 2.168.117 4.268.795 6.094 1.967 7.564 4.5 13.701 15.284 13.701 24.085v.713c7.559 7.893 12.961 19.676 12.961 29.714Z"/><path stroke="#000" stroke-width=".712" d="m98.36 72.217 34.306-20.26M118.344 99.502l34.306-20.26"/><path stroke="#000" stroke-width="1.068" d="m130.508 122.732 34.306-20.259"/></svg>
